X: 36574
T: Shady Road To Clamper, The
R: polka
M: 2/4
K: Gmajor
G>A Bd|gd ed|G>A Bd|ed/B/ d2|
G>A Bd|gd ed|ef/e/ dB|AG G2:|
B2 BA|Bd ed|B2 BG|BA/G/ A2|
B2 BA|Bd ed|ef/e/ dB|AG G2:|

